openmetadata-ui/src/main/resources/ui/src/assets/svg/teams-grey.svg

<svg xmlns="http://www.w3.org/2000/svg" width="16" height="16" viewBox="0 0 16 16" fill="currentColor">
<path d="M8.0001 7.76924C9.59067 7.76924 10.8847 6.47519 10.8847 4.88462C10.8847 3.29405 9.59067 2 8.0001 2C6.40953 2 5.11548 3.29405 5.11548 4.88462C5.11548 6.47519 6.40953 7.76924 8.0001 7.76924ZM8.0001 2.6802C9.21561 2.6802 10.2045 3.66911 10.2045 4.88462C10.2045 6.10013 9.21561 7.08904 8.0001 7.08904C6.78459 7.08904 5.79567 6.10013 5.79567 4.88462C5.79567 3.66911 6.78459 2.6802 8.0001 2.6802Z" fill="currentColor" stroke="currentColor" stroke-width="0.3"/>
<path d="M10.6347 8.65833C10.3534 8.57731 10.0441 8.61639 9.78594 8.76555C9.23066 9.08638 8.63212 9.24907 8.00703 9.24907C7.38194 9.24907 6.78345 9.08638 6.22813 8.76555C5.96999 8.61643 5.66062 8.57735 5.37941 8.65837C4.13695 9.01617 3.26917 10.2475 3.26917 11.6527V12.6756C3.26917 13.6188 3.97154 14.3862 4.83481 14.3862H11.1792C12.0425 14.3862 12.7448 13.6188 12.7448 12.6756V11.6527C12.7449 10.2475 11.8771 9.01613 10.6347 8.65833ZM12.1513 12.6756C12.1513 13.2612 11.7152 13.7376 11.1792 13.7376H4.83485C4.29884 13.7376 3.86279 13.2612 3.86279 12.6756V11.6527C3.86279 10.5417 4.5487 9.56822 5.53074 9.28539C5.57815 9.27173 5.62718 9.26502 5.67633 9.26502C5.77118 9.26502 5.86635 9.2901 5.95068 9.33878C6.59239 9.70955 7.28424 9.89753 8.00707 9.89753C8.72991 9.89753 9.42179 9.70955 10.0635 9.33878C10.1914 9.26485 10.3445 9.24535 10.4834 9.28539C11.4654 9.56822 12.1513 10.5417 12.1513 11.6527V12.6756Z" fill="currentColor" stroke="currentColor" stroke-width="0.3"/>
<path d="M13.5 9C12.6729 9 12 8.3271 12 7.5C12 6.6729 12.6729 6 13.5 6C14.3271 6 15 6.6729 15 7.5C15 8.3271 14.3271 9 13.5 9ZM13.5 6.3537C12.8679 6.3537 12.3537 6.86794 12.3537 7.5C12.3537 8.13206 12.8679 8.6463 13.5 8.6463C14.1321 8.6463 14.6463 8.13206 14.6463 7.5C14.6463 6.86794 14.1321 6.3537 13.5 6.3537Z" fill="currentColor" stroke="currentColor" stroke-width="0.5"/>
<path d="M13.4131 10.3691C13.1377 10.3691 12.8741 10.3035 12.6295 10.1742C12.5779 10.1468 12.56 10.1057 12.4274 10.1387L12.5072 10.4053C12.7899 10.5548 13.0946 10.6305 13.413 10.6305C13.7314 10.6305 14.0362 10.5548 14.3188 10.4053C14.356 10.3856 14.3979 10.3755 14.4397 10.3755C14.4613 10.3755 14.4829 10.3782 14.5038 10.3837C14.9364 10.4978 15.2385 10.8903 15.2385 11.3382V11.7506C15.2385 11.9867 15.0464 12.1788 14.8103 12.1788H12.56V12.4403H14.8104C15.1906 12.4403 15.5 12.1309 15.5 11.7506V11.3382C15.5 10.7717 15.1178 10.2752 14.5705 10.1309C14.4466 10.0983 14.3103 10.114 14.1966 10.1742C13.952 10.3035 13.6884 10.3691 13.4131 10.3691Z" stroke="currentColor" stroke-width="0.6"/>
<path d="M2.5 9C3.3271 9 4 8.3271 4 7.5C4 6.6729 3.3271 6 2.5 6C1.6729 6 1 6.6729 1 7.5C1 8.3271 1.6729 9 2.5 9ZM2.5 6.3537C3.13206 6.3537 3.6463 6.86794 3.6463 7.5C3.6463 8.13206 3.13206 8.6463 2.5 8.6463C1.86794 8.6463 1.3537 8.13206 1.3537 7.5C1.3537 6.86794 1.86794 6.3537 2.5 6.3537Z" fill="currentColor" stroke="currentColor" stroke-width="0.5"/>
<path d="M2.58694 10.3691C2.86228 10.3691 3.12592 10.3035 3.37051 10.1742C3.42214 10.1468 3.44 10.1057 3.57264 10.1387L3.49276 10.4053C3.21011 10.5548 2.90535 10.6305 2.58696 10.6305C2.26856 10.6305 1.96382 10.5548 1.68116 10.4053C1.64401 10.3856 1.60209 10.3755 1.56031 10.3755C1.53866 10.3755 1.51706 10.3782 1.49618 10.3837C1.06361 10.4978 0.761482 10.8903 0.761482 11.3382V11.7506C0.761482 11.9867 0.953554 12.1788 1.18966 12.1788H3.44V12.4403H1.18964C0.809382 12.4403 0.5 12.1309 0.5 11.7506V11.3382C0.5 10.7717 0.882244 10.2752 1.42952 10.1309C1.55339 10.0983 1.68966 10.114 1.80336 10.1742C2.04797 10.3035 2.3116 10.3691 2.58694 10.3691Z" stroke="currentColor" stroke-width="0.6"/>
</svg>

<svg xmlns="http://www.w3.org/2000/svg" width="16" height="16" fill="currentColor"><path stroke="currentColor" stroke-width=".3" d="M8 7.77a2.888 2.888 0 0 0 2.885-2.885A2.888 2.888 0 0 0 8 2a2.888 2.888 0 0 0-2.885 2.885A2.888 2.888 0 0 0 8 7.769Zm0-5.09c1.216 0 2.204.99 2.204 2.205A2.207 2.207 0 0 1 8 7.089a2.207 2.207 0 0 1-2.204-2.204c0-1.216.989-2.205 2.204-2.205ZM10.635 8.658a1.098 1.098 0 0 0-.85.108 3.516 3.516 0 0 1-3.557 0 1.098 1.098 0 0 0-.849-.108c-1.242.358-2.11 1.59-2.11 2.995v1.023c0 .943.703 1.71 1.566 1.71h6.344c.864 0 1.566-.767 1.566-1.71v-1.023c0-1.405-.868-2.637-2.11-2.995Zm1.516 4.018c0 .585-.436 1.062-.972 1.062H4.835c-.536 0-.972-.477-.972-1.062v-1.023c0-1.111.686-2.085 1.668-2.368a.55.55 0 0 1 .42.053 4.064 4.064 0 0 0 4.112 0 .543.543 0 0 1 .42-.053c.982.283 1.668 1.257 1.668 2.368v1.023Z"/><path stroke="currentColor" stroke-width=".5" d="M13.5 9c-.827 0-1.5-.673-1.5-1.5S12.673 6 13.5 6s1.5.673 1.5 1.5S14.327 9 13.5 9Zm0-2.646c-.632 0-1.146.514-1.146 1.146 0 .632.514 1.146 1.146 1.146.632 0 1.146-.514 1.146-1.146 0-.632-.514-1.146-1.146-1.146Z"/><path stroke="currentColor" stroke-width=".6" d="M13.413 10.37a1.66 1.66 0 0 1-.784-.196c-.051-.027-.069-.068-.202-.035l.08.266c.283.15.588.226.906.226.318 0 .623-.076.906-.226a.26.26 0 0 1 .185-.021.988.988 0 0 1 .735.954v.413a.429.429 0 0 1-.429.428h-2.25v.261h2.25c.38 0 .69-.31.69-.69v-.412a1.25 1.25 0 0 0-.93-1.207.523.523 0 0 0-.373.043 1.66 1.66 0 0 1-.784.195Z"/><path stroke="currentColor" stroke-width=".5" d="M2.5 9C3.327 9 4 8.327 4 7.5S3.327 6 2.5 6 1 6.673 1 7.5 1.673 9 2.5 9Zm0-2.646c.632 0 1.146.514 1.146 1.146 0 .632-.514 1.146-1.146 1.146A1.148 1.148 0 0 1 1.354 7.5c0-.632.514-1.146 1.146-1.146Z"/><path stroke="currentColor" stroke-width=".6" d="M2.587 10.37c.275 0 .539-.066.784-.196.051-.027.069-.068.202-.035l-.08.266c-.283.15-.588.226-.906.226-.318 0-.623-.076-.906-.226a.259.259 0 0 0-.185-.021.988.988 0 0 0-.735.954v.413c0 .236.193.428.429.428h2.25v.261H1.19a.69.69 0 0 1-.69-.69v-.412c0-.566.382-1.063.93-1.207a.523.523 0 0 1 .373.043c.245.13.509.195.784.195Z"/></svg>
